img/icons/features/icon_alarm.svg

<svg width="25" height="30" viewBox="0 0 25 30" fill="none" xmlns="http://www.w3.org/2000/svg">
<ellipse cx="18.2042" cy="9.32987" rx="1.0873" ry="1.08512" fill="white"/>
<ellipse cx="7.33112" cy="9.32987" rx="1.08731" ry="1.08512" fill="white"/>
<ellipse cx="7.33112" cy="22.3512" rx="1.08731" ry="1.08512" fill="white"/>
<ellipse cx="12.7677" cy="24.5215" rx="1.0873" ry="1.08512" fill="white"/>
<ellipse cx="4.06924" cy="15.7748" rx="1.08731" ry="1.08512" fill="white"/>
<ellipse cx="21.4661" cy="15.7748" rx="1.0873" ry="1.08512" fill="white"/>
<ellipse cx="18.2042" cy="22.3512" rx="1.0873" ry="1.08512" fill="white"/>
<mask id="path-8-inside-1" fill="white">
<path fill-rule="evenodd" clip-rule="evenodd" d="M17.9215 27.0581C18.3298 26.8622 18.8226 26.9298 19.1385 27.2542L20.9644 29.1292C21.2319 29.4039 21.6734 29.4039 21.941 29.1292C22.1987 28.8645 22.1987 28.4427 21.941 28.1781L20.5843 26.7849C20.1584 26.3475 20.2228 25.6356 20.682 25.2333C23.3238 22.9195 25 19.4688 25 15.6145C25 8.6477 19.5235 3 12.7678 3C6.01218 3 0.535645 8.6477 0.535645 15.6145C0.535645 19.4288 2.17729 22.8477 4.77166 25.1608C5.22438 25.5644 5.28489 26.2708 4.86173 26.7054L3.42757 28.1781C3.16985 28.4427 3.16984 28.8645 3.42756 29.1291C3.69513 29.4039 4.13664 29.4039 4.40421 29.1292L6.28384 27.199C6.60245 26.8718 7.10039 26.8061 7.51021 27.0076C9.10297 27.7907 10.8858 28.229 12.7678 28.229C14.609 28.229 16.3553 27.8095 17.9215 27.0581ZM12.7678 26.8274C18.7728 26.8274 23.6409 21.8072 23.6409 15.6145C23.6409 9.42179 18.7728 4.40161 12.7678 4.40161C6.7628 4.40161 1.89478 9.42179 1.89478 15.6145C1.89478 21.8072 6.7628 26.8274 12.7678 26.8274ZM12.0083 15.298V11.5001V7.94092C12.0083 7.50942 12.3581 7.15963 12.7895 7.15963C13.221 7.15963 13.5708 7.50942 13.5708 7.94092V11.5001V15.298V15.8406V16.1226C13.5708 16.5661 13.2113 16.9257 12.7677 16.9257C12.3483 16.9257 12.0083 16.5857 12.0083 16.1663V15.8406V15.298Z"/>
</mask>
<path fill-rule="evenodd" clip-rule="evenodd" d="M17.9215 27.0581C18.3298 26.8622 18.8226 26.9298 19.1385 27.2542L20.9644 29.1292C21.2319 29.4039 21.6734 29.4039 21.941 29.1292C22.1987 28.8645 22.1987 28.4427 21.941 28.1781L20.5843 26.7849C20.1584 26.3475 20.2228 25.6356 20.682 25.2333C23.3238 22.9195 25 19.4688 25 15.6145C25 8.6477 19.5235 3 12.7678 3C6.01218 3 0.535645 8.6477 0.535645 15.6145C0.535645 19.4288 2.17729 22.8477 4.77166 25.1608C5.22438 25.5644 5.28489 26.2708 4.86173 26.7054L3.42757 28.1781C3.16985 28.4427 3.16984 28.8645 3.42756 29.1291C3.69513 29.4039 4.13664 29.4039 4.40421 29.1292L6.28384 27.199C6.60245 26.8718 7.10039 26.8061 7.51021 27.0076C9.10297 27.7907 10.8858 28.229 12.7678 28.229C14.609 28.229 16.3553 27.8095 17.9215 27.0581ZM12.7678 26.8274C18.7728 26.8274 23.6409 21.8072 23.6409 15.6145C23.6409 9.42179 18.7728 4.40161 12.7678 4.40161C6.7628 4.40161 1.89478 9.42179 1.89478 15.6145C1.89478 21.8072 6.7628 26.8274 12.7678 26.8274ZM12.0083 15.298V11.5001V7.94092C12.0083 7.50942 12.3581 7.15963 12.7895 7.15963C13.221 7.15963 13.5708 7.50942 13.5708 7.94092V11.5001V15.298V15.8406V16.1226C13.5708 16.5661 13.2113 16.9257 12.7677 16.9257C12.3483 16.9257 12.0083 16.5857 12.0083 16.1663V15.8406V15.298Z" fill="white"/>
<rect x="12" y="4" width="4" height="1.5" transform="rotate(-90 12 4)" fill="white"/>
<rect x="5" width="15.5" height="1.5" rx="0.75" fill="white"/>
</svg>

<svg width="25" height="30" fill="none" xmlns="http://www.w3.org/2000/svg"><ellipse cx="18.204" cy="9.33" rx="1.087" ry="1.085" fill="#fff"/><ellipse cx="7.331" cy="9.33" rx="1.087" ry="1.085" fill="#fff"/><ellipse cx="7.331" cy="22.351" rx="1.087" ry="1.085" fill="#fff"/><ellipse cx="12.768" cy="24.521" rx="1.087" ry="1.085" fill="#fff"/><ellipse cx="4.069" cy="15.775" rx="1.087" ry="1.085" fill="#fff"/><ellipse cx="21.466" cy="15.775" rx="1.087" ry="1.085" fill="#fff"/><ellipse cx="18.204" cy="22.351" rx="1.087" ry="1.085" fill="#fff"/><path fill-rule="evenodd" clip-rule="evenodd" d="M17.922 27.058a1.058 1.058 0 011.216.196l1.826 1.875a.682.682 0 00.977-.95l-1.357-1.394c-.426-.438-.361-1.15.098-1.552C23.324 22.92 25 19.47 25 15.614 25 8.648 19.523 3 12.768 3 6.012 3 .536 8.648.536 15.614c0 3.815 1.641 7.234 4.236 9.547.452.403.513 1.11.09 1.544l-1.434 1.473a.682.682 0 10.976.951l1.88-1.93a1.058 1.058 0 011.226-.191 11.878 11.878 0 005.258 1.221c1.841 0 3.587-.42 5.154-1.17zm-5.154-.23c6.005 0 10.873-5.02 10.873-11.213S18.773 4.402 12.768 4.402c-6.005 0-10.873 5.02-10.873 11.212 0 6.193 4.868 11.213 10.873 11.213zm-.76-11.53V7.94a.781.781 0 111.563 0v8.183c0 .443-.36.803-.803.803a.76.76 0 01-.76-.76v-.868z" fill="#fff"/><path fill="#fff" d="M12 4V0h1.5v4z"/><rect x="5" width="15.5" height="1.5" rx=".75" fill="#fff"/></svg>
